icons/arrow-block-leftB.svg

<svg width="24" height="24" viewBox="0 0 24 24" fill="none" xmlns="http://www.w3.org/2000/svg">
<path d="M13.7999 5.99961V9.39961H20.0999C20.3999 9.39961 20.6999 9.69961 20.6999 9.99961V13.9996C20.6999 14.2996 20.3999 14.5996 20.0999 14.5996H13.7999V17.9996C13.7999 18.1996 13.5999 18.2996 13.3999 18.1996L3.59993 12.4996C3.19993 12.2996 3.19993 11.6996 3.59993 11.4996L13.4999 5.79961C13.5999 5.69961 13.7999 5.79961 13.7999 5.99961Z" fill="black"/>
<path fill-rule="evenodd" clip-rule="evenodd" d="M13.0499 6.92418L4.2333 12.0004L13.0499 17.1285V13.8497H19.9499V10.1497H13.0499V6.92418ZM14.0733 5.14404C14.3624 5.31752 14.5499 5.63706 14.5499 5.99966V8.64966H20.0999C20.4939 8.64966 20.825 8.83907 21.0428 9.05683C21.2605 9.27459 21.4499 9.60574 21.4499 9.99966V13.9997C21.4499 14.3936 21.2605 14.7247 21.0428 14.9425C20.825 15.1603 20.4939 15.3497 20.0999 15.3497H14.5499V17.9997C14.5499 18.3757 14.3465 18.7149 14.0103 18.883C13.692 19.0422 13.3412 19.0088 13.0645 18.8705L13.0433 18.8599L3.23929 13.1575C2.31955 12.6735 2.32014 11.3238 3.24105 10.8409L13.0712 5.18108C13.4126 4.92553 13.8261 4.99574 14.0733 5.14404Z" fill="black"/>
</svg>

<svg xmlns="http://www.w3.org/2000/svg" fill="none" viewBox="0 0 24 24">
  <path fill="#000" d="M13.8 6v3.4h6.3c.3 0 .6.3.6.6v4c0 .3-.3.6-.6.6h-6.3V18c0 .2-.2.3-.4.2l-9.8-5.7c-.4-.2-.4-.8 0-1l9.9-5.7c.1-.1.3 0 .3.2Z"/>
  <path fill="#000" fill-rule="evenodd" d="M13.05 6.924 4.233 12l8.817 5.128V13.85h6.9v-3.7h-6.9V6.924Zm1.023-1.78c.29.174.477.493.477.856v2.65h5.55c.394 0 .725.19.943.407.218.218.407.549.407.943v4c0 .394-.19.725-.407.943a1.35 1.35 0 0 1-.943.407h-5.55V18a.978.978 0 0 1-.54.883c-.318.16-.669.126-.945-.012l-.022-.011-9.804-5.702c-.92-.484-.919-1.834.002-2.317l9.83-5.66c.342-.255.755-.185 1.002-.037Z" clip-rule="evenodd"/>
</svg>
